!!!OTL: 42l. Die ſchoene Anna und der boese Faehnrich.
!!!ODT: 1880
!!!ARE: Europa, Mitteleuropa, Deutschland, Harz, Clausthal, Altenau
!!!SCT: E0042L
!!!TXL: @@DE
!!!YEM: Copyright 1995, estate of Helmut Schaffrath.
**kern	**text
*ICvox	*
*M2/4	*
*k[b-e-a-]	*
*E-:	*
!LO:TX:a:t=Bewegt.	!
!LO:TX:a:t=Altenau bei Clausthal im Harʒ. 1880.	!
{8e-	Als
8f	die
=1	=1
8g	wun-
8g	-der-
8g	-ſchö-
8g	-ne
=2	=2
8g	An-
8g}	-na
{8f	auf
8e-	dem
=3	=3
8f	Lei-
8B-	-chen-
8B-	-ſtei-
8B-	-ne
=4	=4
8B-	ſaß,
8r}	.
{8f	als
8g	die
=5	=5
8a-	wun-
8a-	-der-
8a-	-ſchö-
8a-	-ne
=6	=6
8a-	An-
8a-}	-na
{8cc	auf
8b-	dem
=7	=7
8a-	Lei-
8g	-chen-
8g	-ſtei-
8g	-ne
=8	=8
4g	ſaß
8r}	.
{8cc	und
=9	=9
8b-/	ſchmück-
8a-	-te
8g	ſich
8f	mit
=10	=10
8e-	Veilchen
8e-	.
8e-}	blau,
{8e-	mit
=11	=11
4cc	Veilchen
4cc	.
=12	=12
4b-	blau,
8r}	.
{8cc	und
=13	=13
8b-/	ſchmückte
8a-	.
8g	ſich
8f	mit
=14	=14
8e-	Veilchen
8e-	.
8e-}	blau,
{8g	mit
=15	=15
4b-	Veil-
8b-L	-chen
8a-J	.
=16	=16
4g;}	blau.
==	==
!!!AGN: erzaehlendes Volks - Lied, Ritter -, Raeuber - Sage, Ballade ?
!!!ONB: ESAC (Essen Associative Code) Database: ERK1
!!!AMT: simple duple
!!!AIN: vox
!!!EED: Helmut Schaffrath
!!!EEV: 1.0
!!!GTL: Ritter- und Raeubersagen
!!!URL-scan: https://rosdok.uni-rostock.de/mcrviewer/recordIdentifier/rosdok_ppn745146120/iview2/phys_0209.iview2?x=-250.1417780126858&y=777.5852071831468&scale=0.5392104374602399&rotation=0&layout=singlePageLayout&logicalDiv=log_0009
!!!ENC: Anna Maria Matuszewska
!!!EEV: 2024/11/25
*-	*-
